X: 3012
T: MISS PRESTON FERNTON
Q:"Reel."
R: Reel.
%R:reel
B: James Kerr "Merry Melodies" v.3 p.4 #12
Z: 2016 John Chambers <jc:trillian.mit.edu>
M: C
L: 1/8
K: D
uB |\
ABAG FDdF | E/E/E (FA) BEEd |\
ABAG FDdg | fdef d/d/d d ::\
f |\
adfd (f/g/a) (fd) |
Beed cAAf |\
[1 adfd (f/g/a) (fd) | Ggfe d/d/d d :|\
[2 fdaf bgaf | edef d/d/d d |]

%%sep 1 1 500
%%sep 1 1 500

